antibot/app/images/dist/antihow-step4.svg

<svg width="103" height="108" viewBox="0 0 103 108" fill="none" xmlns="http://www.w3.org/2000/svg">
<g clip-path="url(#clip0_79_7766)">
<circle cx="53" cy="50" r="49" fill="#F4FFF4" stroke="#29B74D" stroke-width="2"/>
<rect x="1" y="71" width="36" height="36" rx="18" fill="#F4FFF4" stroke="#29B74D" stroke-width="2"/>
<path d="M24.1855 90.9316V92.8066H13.9316L13.8535 91.3906L19.9863 81.7812H21.8711L19.8301 85.2773L16.3047 90.9316H24.1855ZM22.4082 81.7812V96H20.0547V81.7812H22.4082Z" fill="#29B74D"/>
<g filter="url(#filter0_d_79_7766)">
<path d="M64.5417 42.381L66.1875 38.7351L69.8333 37.0893C70.0152 37.0064 70.1694 36.873 70.2775 36.7049C70.3856 36.5369 70.4431 36.3412 70.4431 36.1414C70.4431 35.9415 70.3856 35.7459 70.2775 35.5778C70.1694 35.4097 70.0152 35.2763 69.8333 35.1935L66.1875 33.5476L64.5417 29.881C64.4588 29.6991 64.3254 29.5449 64.1573 29.4368C63.9892 29.3287 63.7936 29.2712 63.5937 29.2712C63.3939 29.2712 63.1983 29.3287 63.0302 29.4368C62.8621 29.5449 62.7287 29.6991 62.6458 29.881L61 33.5268L57.3333 35.1726C57.1515 35.2555 56.9973 35.3889 56.8892 35.557C56.781 35.7251 56.7235 35.9207 56.7235 36.1205C56.7235 36.3204 56.781 36.516 56.8892 36.6841C56.9973 36.8522 57.1515 36.9856 57.3333 37.0685L60.9792 38.7143L62.625 42.381C63 43.1935 64.1667 43.1935 64.5417 42.381ZM47.9583 45.506L44.6458 38.2143C43.9167 36.5893 41.5833 36.5893 40.8542 38.2143L37.5417 45.506L30.25 48.8185C28.625 49.5685 28.625 51.881 30.25 52.6101L37.5417 55.9226L40.8542 63.2143C41.6042 64.8393 43.9167 64.8393 44.6458 63.2143L47.9583 55.9226L55.25 52.6101C56.875 51.8601 56.875 49.5476 55.25 48.8185L47.9583 45.506ZM62.625 59.0476L60.9792 62.6935L57.3333 64.3393C57.1515 64.4222 56.9973 64.5556 56.8892 64.7237C56.781 64.8917 56.7235 65.0874 56.7235 65.2872C56.7235 65.4871 56.781 65.6827 56.8892 65.8508C56.9973 66.0188 57.1515 66.1523 57.3333 66.2351L60.9792 67.881L62.625 71.5476C62.7079 71.7295 62.8413 71.8837 63.0094 71.9918C63.1774 72.0999 63.3731 72.1574 63.5729 72.1574C63.7728 72.1574 63.9684 72.0999 64.1365 71.9918C64.3045 71.8837 64.438 71.7295 64.5208 71.5476L66.1667 67.9018L69.8333 66.256C70.0152 66.1731 70.1694 66.0397 70.2775 65.8716C70.3856 65.7035 70.4431 65.5079 70.4431 65.308C70.4431 65.1082 70.3856 64.9126 70.2775 64.7445C70.1694 64.5764 70.0152 64.443 69.8333 64.3601L66.1875 62.7143L64.5417 59.0476C64.4563 58.8655 64.3209 58.7115 64.1511 58.6036C63.9814 58.4957 63.7845 58.4384 63.5833 58.4384C63.3822 58.4384 63.1853 58.4957 63.0155 58.6036C62.8458 58.7115 62.7103 58.8655 62.625 59.0476Z" fill="#2AB74E"/>
</g>
</g>
<defs>
<filter id="filter0_d_79_7766" x="-10.9688" y="-10.7288" width="121.412" height="122.886" filterUnits="userSpaceOnUse" color-interpolation-filters="sRGB">
<feFlood flood-opacity="0" result="BackgroundImageFix"/>
<feColorMatrix in="SourceAlpha" type="matrix" values="0 0 0 0 0 0 0 0 0 0 0 0 0 0 0 0 0 0 127 0" result="hardAlpha"/>
<feOffset/>
<feGaussianBlur stdDeviation="20"/>
<feComposite in2="hardAlpha" operator="out"/>
<feColorMatrix type="matrix" values="0 0 0 0 0.164706 0 0 0 0 0.717647 0 0 0 0 0.305882 0 0 0 0.6 0"/>
<feBlend mode="normal" in2="BackgroundImageFix" result="effect1_dropShadow_79_7766"/>
<feBlend mode="normal" in="SourceGraphic" in2="effect1_dropShadow_79_7766" result="shape"/>
</filter>
<clipPath id="clip0_79_7766">
<rect width="103" height="108" fill="white"/>
</clipPath>
</defs>
</svg>

<svg width="103" height="108" fill="none" xmlns="http://www.w3.org/2000/svg"><g clip-path="url(#a)"><circle cx="53" cy="50" r="49" fill="#F4FFF4" stroke="#29B74D" stroke-width="2"/><rect x="1" y="71" width="36" height="36" rx="18" fill="#F4FFF4" stroke="#29B74D" stroke-width="2"/><path d="M24.186 90.932v1.875H13.932l-.079-1.416 6.133-9.61h1.885l-2.04 3.496-3.526 5.655h7.88Zm-1.778-9.15V96h-2.353V81.781h2.353Z" fill="#29B74D"/><g filter="url(#b)"><path d="m64.542 42.381 1.645-3.646 3.646-1.646a1.042 1.042 0 0 0 0-1.895l-3.645-1.646-1.646-3.667a1.042 1.042 0 0 0-1.896 0L61 33.527l-3.667 1.646a1.042 1.042 0 0 0 0 1.895l3.646 1.646 1.646 3.667c.375.813 1.542.813 1.917 0Zm-16.584 3.125-3.312-7.292c-.73-1.625-3.063-1.625-3.792 0l-3.312 7.292-7.292 3.313c-1.625.75-1.625 3.062 0 3.791l7.292 3.313 3.312 7.291c.75 1.625 3.063 1.625 3.792 0l3.312-7.291 7.292-3.313c1.625-.75 1.625-3.062 0-3.791l-7.292-3.313Zm14.667 13.542-1.646 3.645-3.646 1.646a1.042 1.042 0 0 0 0 1.896l3.646 1.646 1.646 3.667a1.042 1.042 0 0 0 1.896 0l1.646-3.646 3.666-1.646a1.042 1.042 0 0 0 0-1.896l-3.645-1.646-1.646-3.666a1.058 1.058 0 0 0-1.917 0Z" fill="#2AB74E"/></g></g><defs><clipPath id="a"><path fill="#fff" d="M0 0h103v108H0z"/></clipPath><filter id="b" x="-10.969" y="-10.729" width="121.412" height="122.886" filterUnits="userSpaceOnUse" color-interpolation-filters="sRGB"><feFlood flood-opacity="0" result="BackgroundImageFix"/><feColorMatrix in="SourceAlpha" values="0 0 0 0 0 0 0 0 0 0 0 0 0 0 0 0 0 0 127 0" result="hardAlpha"/><feOffset/><feGaussianBlur stdDeviation="20"/><feComposite in2="hardAlpha" operator="out"/><feColorMatrix values="0 0 0 0 0.164706 0 0 0 0 0.717647 0 0 0 0 0.305882 0 0 0 0.6 0"/><feBlend in2="BackgroundImageFix" result="effect1_dropShadow_79_7766"/><feBlend in="SourceGraphic" in2="effect1_dropShadow_79_7766" result="shape"/></filter></defs></svg>
